!! J.S. Bach, Die Kunst der Fuge; Fuga 12a in d minor; BWV 1080.
!! Encoded from "Bach; Die Kunst der Fuge", (Carl Czerny, ed.)
!! New York: C.F. Peters Co., pp.42-43; in four voices.
!! Performance duration: 2:35; performance tempo: 130.1 quarter-notes per min.
!! (Davitt Moroney, harpsichord, "Bach, 'Die Kunst der Fuge'",
!! Harmonia Mundi No. HMC 1169.70)
!! NOTE: This is the first part of a two-part fugue.  The second
!!       part (in inversion) is in a different file (kdf.12b).
**kern	**kern	**kern	**kern
*d:	*d:	*d:	*d:
*M3/2	*M3/2	*M3/2	*M3/2
*MM130.1	*MM130.1	*MM130.1	*MM130.1
=1	=1	=1	=1
2D	1.r	1.r	1.r
1A	.	.	.
=2	=2	=2	=2
2F	1.r	1.r	1.r
1D	.	.	.
=3	=3	=3	=3
2C#	1.r	1.r	1.r
2D	.	.	.
2E	.	.	.
=4	=4	=4	=4
2.F	1.r	1.r	1.r
4G	.	.	.
4F	.	.	.
4E	.	.	.
=5	=5	=5	=5
2D	2A	1.r	1.r
4r	1d	.	.
4E	.	.	.
4F	.	.	.
4G	.	.	.
=6	=6	=6	=6
2A	2c	1.r	1.r
4r	1A	.	.
4Bn	.	.	.
4c	.	.	.
4d	.	.	.
=7	=7	=7	=7
4e	2G#	1.r	1.r
4d	.	.	.
4c	2A	.	.
4Bn	.	.	.
4A	2Bn	.	.
4G#	.	.	.
=8	=8	=8	=8
4A	2.c	1.r	1.r
8Gn	.	.	.
8F	.	.	.
2.ET	.	.	.
.	4d	.	.
.	4c	.	.
8D	4Bn	.	.
8E	.	.	.
=9	=9	=9	=9
4F	2.A	1.r	1.r
8E	.	.	.
8D	.	.	.
2.C#T	.	.	.
.	4B-	.	.
.	4A	.	.
8BBn	4G	.	.
8C#	.	.	.
=10	=10	=10	=10
2D	8F	2d	1.r
.	8G	.	.
.	8F	.	.
.	8E	.	.
4r	4D	1a	.
4FF	4A	.	.
4GG	4Bn	.	.
4AA	4c#	.	.
=11	=11	=11	=11
4BB-	2d	2f	1.r
4AA	.	.	.
1BB-T	4r	1d	.
.	4e	.	.
.	4f	.	.
.	4g	.	.
=12	=12	=12	=12
[1.AA	4a	2c#	1.r
.	4g	.	.
.	4f	2d	.
.	4e	.	.
.	4d	2e	.
.	4c#	.	.
=13	=13	=13	=13
8AA]	2.d	2.f	1.r
8GG	.	.	.
8FF	.	.	.
8GG	.	.	.
4AA	.	.	.
4BB-	4c#	4g	.
4AA	4d	4f	.
4GG	4d	4d	.
=14	=14	=14	=14
4FF	4A	2d	2a
4EE	4G	.	.
2D	4F	4r	1dd
.	4E	4e	.
4r	4D	4f	.
4BB-	4E	4g	.
=15	=15	=15	=15
8AA	4F	2a	2cc
8GG	.	.	.
8FF	4G	.	.
8EE	.	.	.
2FF	4A	4r	1a
.	4G#	4bn	.
4r	4A	4cc	.
4F	4Bn	4dd	.
=16	=16	=16	=16
8E	4c	4ee	2g#
8D	.	.	.
8C	4d	4dd	.
8BBn	.	.	.
2C	[1e	4cc	2a
.	.	4bn	.
4r	.	4a	2b
4E	.	4g#	.
=17	=17	=17	=17
8AA	4e]	2.a	2.cc
8BBn	.	.	.
8C	4A	.	.
8D	.	.	.
2E	2E	.	.
.	.	4b-	4dd
2EE	4r	4a	4cc
.	4d	4g	4b-
=18	=18	=18	=18
8FF	4c	2.f	2.a
8GG	.	.	.
8AA	4F	.	.
8BB-	.	.	.
2C	2C	.	.
.	.	4g	4b-
2CC	4r	4f	4a
.	4B-	4e	4g
=19	=19	=19	=19
8DD	4A	2.d	2.f
8EE	.	.	.
8FF	8d	.	.
8GG	8e	.	.
2A	4f	.	.
.	4c#	4e	4g
4r	4d	4d	4f
4BB-	4G	4c#	4e
=20	=20	=20	=20
4AA	2.A	4d	4f
4GG	.	4e	4g
4FF	.	2.f	2.a
4EE	4G	.	.
2DD	4F	.	.
.	4E	8g	8bn
.	.	8e	8cc#
=21	=21	=21	=21
1.r	[2D	4f	8dd
.	.	.	8ee
.	.	4a	8ff
.	.	.	8gg
.	8D]	4d	[2aa
.	8E	.	.
.	8F	8A	.
.	8G	8Bn	.
.	[2A	4c#	8aa]
.	.	.	8bb-
.	.	8d	8aa
.	.	8e	8gg
=22	=22	=22	=22
2r	8A]	4d	4ff
.	8a	.	.
.	8A	4c#	4ee
.	8G	.	.
2r	8F	8d	2.dd
.	8E	8e	.
.	8D	8f	.
.	8E	8g	.
8D	4f	[2a	.
8E	.	.	.
8F	4f	.	8cc#
8G	.	.	8bn
=23	=23	=23	=23
8A	2e	2.a]	2cc#
8B-	.	.	.
8A	.	.	.
8G	.	.	.
4F	2.f	.	2.dd
4E	.	8b-	.
.	.	8ccn	.
4D	.	2b-T	.
4C#	4g	.	4ee
=24	=24	=24	=24
4D	2f	4a	2.ff
8Cn	.	2d	.
8BB-	.	.	.
2.AAT	[1F	.	.
.	.	4e-	4gg
.	.	4d	4ff
8GG	.	4c	4ee-
8AA	.	.	.
=25	=25	=25	=25
4BB-	4F]	4.B-	1dd
4GG	8G	.	.
.	8En	16c	.
.	.	16B-	.
2D	8F#	2A	.
.	8A	.	.
.	8B-	.	.
.	8c	.	.
8r	4d	2r	8r
8BB-	.	.	8dd
8C	4c	.	8ee
8D	.	.	8ff#
=26	=26	=26	=26
4E-	8B-	8g	8gg
.	8c	8a	8ff#
8D	8B-	8b-	8gg
8C	8A	8cc	8aa
4BB-	8G	[2dd	4bb-
.	8F#	.	.
4AA	8G	.	4r
.	8A	.	.
4GG	8B-	8dd]	2r
.	8c	8ee-	.
4FF#	8d	8dd	.
.	8e-	8cc	.
=27	=27	=27	=27
4GG	2d	4b-	2r
4AA	.	4a	.
4BB-	2r	2.g	2r
4AA	.	.	.
4BB-	2r	.	[2dd
4C	.	8f#	.
.	.	8e	.
=28	=28	=28	=28
2D	1.r	2f#	4dd]
.	.	.	4cc
2E-	.	2.g	4b-
.	.	.	4a
8r	.	.	4g
8E-	.	.	.
8D	.	4a	4f#
8C	.	.	.
=29	=29	=29	=29
8BB-	1.r	2.b-	4g
8AA	.	.	.
8GG	.	.	4e-
8FF#	.	.	.
8GG	.	.	[1d
8DD	.	.	.
8EEn	.	4cc	.
8FF#	.	.	.
8GG	.	4b-	.
8AA	.	.	.
8BB-	.	4a	.
8C	.	.	.
=30	=30	=30	=30
8BB-	1.r	2.g	4d]
8AA	.	.	.
8GG	.	.	8e-
8AA	.	.	8fn
2BB-	.	.	4g
.	.	4a-	4f
4r	.	4g	4e-
4BBn	.	4f	4d
=31	=31	=31	=31
8C	1.r	2.e-	[2c
8D	.	.	.
8E-	.	.	.
8C	.	.	.
2AA	.	.	8c]
.	.	.	8d
.	.	4g	8e-
.	.	.	8c
8r	.	4f	8d
8D	.	.	8B-
8E-	.	4e-	8c
8F	.	.	8A
=32	=32	=32	=32
4G	8B-	[2d	[2B-
.	8c	.	.
8F	8d	.	.
8E-	8e-	.	.
4D	[2f	8d]	8B-]
.	.	8e-	8c
4C	.	8f	8d
.	.	8e-	8e-
4BB-	8f]	8d	[2f
.	8g	8e-	.
4AA	8f	8d	.
.	8e-	8c	.
=33	=33	=33	=33
4BB-	4d	4B-	2f]
4C	4c	8A	.
.	.	8G	.
4D	2.B-	[2F	8ff
.	.	.	8ee-
4E-	.	.	8dd
.	.	.	8cc
[2F	.	8F]	4dd
.	.	8G	.
.	8A	8A	4ff
.	8G	8B-	.
=34	=34	=34	=34
8F]	2A	2c	8cc
8G	.	.	8b-
8F	.	.	8a
8E-	.	.	8g
[2D	2.B-	8d	[2f
.	.	8e-	.
.	.	8d	.
.	.	8c	.
8D]	.	[2B-	8f]
8E-	.	.	8g
8D	4c	.	8f
8C	.	.	8e-
=35	=35	=35	=35
4BB-	2.d	8B-]	8d
.	.	8c	8en
8AA	.	8d	8f#
8GG	.	8e-	8g
2.FF#T	.	4d	1a
.	4e-	8c	.
.	.	8B-	.
.	4d	4A	.
8EEn	4c	4a	.
8FF#	.	.	.
=36	=36	=36	=36
4GG	[2B-	2g	8b-
.	.	.	8a
4EE-	.	.	8b-
.	.	.	8cc
2BB-	8B-]	2.f	8dd
.	8A	.	8cc
.	8B-	.	8dd
.	8c	.	8ee-
2r	4d	.	8ff
.	.	.	8ee-
.	4B-	8g	8dd
.	.	8a-	8cc
=37	=37	=37	=37
1.r	[2e-	8g	8b-
.	.	8f	8a-
.	.	8e-	8g
.	.	8f	8a-
.	8e-]	8g	4b-
.	8d	8f	.
.	8e-	8g	2b-
.	8f	8a-	.
.	4e-	4g	.
.	4d	4f	8cc
.	.	.	8dd
=38	=38	=38	=38
1.r	8c	2e-	[1.ee-
.	8B-	.	.
.	8c	.	.
.	8d	.	.
.	4c	8r	.
.	.	8An	.
.	4B-	8G	.
.	.	8B-	.
.	4A	8c	.
.	.	8d	.
.	4G	8e-	.
.	.	8d	.
=39	=39	=39	=39
1.r	4A	4c	4ee-]
.	4F	4A	8ff
.	.	.	8gg
.	4G	4B-	4ff
.	4A	4c	4ee-
.	8B-	4d	[2dd
.	8c	.	.
.	8d	4f#	.
.	8c	.	.
=40	=40	=40	=40
1.r	4B-	8g	1dd_
.	.	8a	.
.	4A	8b-	.
.	.	8cc	.
.	4G	8b-	.
.	.	8dd	.
.	4F#	8a	.
.	.	8cc	.
.	4G	4b-	4dd]
.	4E	4g	8een
.	.	.	8ff
=41	=41	=41	=41
1.r	4Fn	4a	8ee
.	.	.	8dd
.	4G	4b-	8cc#
.	.	.	8dd
.	8A	4a	4cc#
.	8G	.	.
.	8A	4f	4dd
.	8B-	.	.
.	4A	8c#	2ee
.	.	8d	.
.	4G	8e	.
.	.	8c#	.
=42	=42	=42	=42
8D	8F	[2d	4a
8E	8G	.	.
8F	[4A	.	2aa
8G	.	.	.
[2A	8A]	8d]	.
.	8Bn	8f	.
.	8c#	8e	8gg
.	8d	8d	8ff
8A]	4e	2c#	8ee
8B-	.	.	8gg
8A	[4a	.	8ff
8G	.	.	8ee
=43	=43	=43	=43
4F	4a]	[2d	8dd
.	.	.	8cc#
4E	4g	.	8dd
.	.	.	8ee
2.D	4f	8d]	[2ff
.	.	8e	.
.	4a	8f	.
.	.	8g	.
.	2d	[2a	8ff]
.	.	.	8ee
8C#	.	.	8ff
8BBn	.	.	8gg
=44	=44	=44	=44
2C#	2r	4a]	8aa
.	.	.	8gg
.	.	4e	8aa
.	.	.	8bb-
2.D	8r	4f	8aa
.	8C#	.	8gg
.	8D	4a	8ff
.	8E	.	8ee
.	8F	4.b-	[2dd
.	8A	.	.
4E	8G	.	.
.	8B-	16a	.
.	.	16g	.
=45	=45	=45	=45
2.F	2.A	8f	8dd]
.	.	8e	8cc#
.	.	8f	8dd
.	.	8g	8ee
.	.	8f	8dd
.	.	8e	8ccn
4G	4B-	2d	8b-
.	.	.	8a
4F	4A	.	8bn
.	.	.	8cc#
4E	4G	4c#	8dd
.	.	.	8ee
=46	=46	=46	=46
[2D	8F	4d	8ff
.	8G	.	8ee
.	4A	4A	8ff
.	.	.	8gg
8D]	4D	8d	8ff
8C#	.	8e	8ee
8D	4r	[4f	8dd
8E	.	.	8cc#
4F	4r	8f]	8dd
.	.	8g	8ee
4D	[4d	8a	8ff
.	.	8f	8dd
=47	=47	=47	=47
[2G	4d]	2d	8b-
.	.	.	8a
.	8g	.	8b-
.	8f#	.	8cc
8G]	4g	2r	4b-
8F#	.	.	.
8G	8B-	.	4dd
8A	8c	.	.
4G	8d	4r	4b-
.	8c	.	.
4Fn	8B-	4d	4dd
.	8A	.	.
=48	=48	=48	=48
[2E	8G	4e	8gg
.	8A	.	8ff
.	2B-	4c#	8gg
.	.	.	8aa
8E]	.	4e	8gg
8D	.	.	8ff
8E	2Bn	[4g	[4ee
8F	.	.	.
4G	.	8g]	8ee]
.	.	8a	8ff
4E	[4e	8g	8ee
.	.	8f	8dd
=49	=49	=49	=49
[2A	8e]	4e	8cc#
.	8d	.	8bn
.	8e	4a	8cc#
.	8f	.	8dd
8A]	4g	2r	8cc#
8G	.	.	8ee
8A	2c#	.	[4e
8B-	.	.	.
4A	.	2r	8e]
.	.	.	8f
4E	4c#	.	8g
.	.	.	16a
.	.	.	16b-
=50	=50	=50	=50
2.F	[2d	8d	[1.a
.	.	8e	.
.	.	8f	.
.	.	8g	.
.	8d]	2.a	.
.	8Bn	.	.
8E	8c#	.	.
8D	8d	.	.
8C#	8e	.	.
8AA	8c#	.	.
8BBn	8d	4g	.
8C#	8e	.	.
=51	=51	=51	=51
8D	4A	4f	1.a_
8C#	.	.	.
8D	4r	4e	.
8E	.	.	.
[2F	8D	2.d	.
.	8E	.	.
.	8F	.	.
.	8G	.	.
8F]	[2A	.	.
8E	.	.	.
8F	.	8c#	.
8G	.	8Bn	.
=52	=52	=52	=52
4A	8A]	2c#	1.a_
.	8B-	.	.
4r	8A	.	.
.	8G	.	.
8DD	[2F	2.d	.
8EE	.	.	.
8FF	.	.	.
8GG	.	.	.
[2AA	8F]	.	.
.	8E	.	.
.	8D	4e	.
.	8C#	.	.
=53	=53	=53	=53
4AA]	8D	4f	1.a_
.	8A	.	.
4GG	8Bn	4e	.
.	8c#	.	.
4FF	8d	4f	.
.	8e	.	.
4EE	8d	4g	.
.	8c#	.	.
8FF	4d	4f	.
8AA	.	.	.
8BBn	4G	4e	.
8C#	.	.	.
=54	=54	=54	=54
[1.D	4F#	4d	4a]
.	4B-	4r	8g
.	.	.	8f#
.	8B-	4e	8g
.	8A	.	8a
.	8G	4r	8b-
.	8A	.	8cc
.	8B-	8r	[2dd
.	8c	8f#	.
.	8B-	8g	.
.	8A	8a	.
=55	=55	=55	=55
1.D_	8G	4b-	4dd]
.	8D	.	.
.	8E	4a	4cc
.	8F#	.	.
.	8G	4g	4b-
.	8A	.	.
.	8B-	4f#	4a
.	8c	.	.
.	8B-	2e	8g
.	8A	.	8a
.	8G	.	4b-
.	16F#	.	.
.	16E	.	.
=56	=56	=56	=56
2D_	8F#	8r	1.a;
.	8G	8e	.
.	4A	8f#	.
.	.	8g	.
8D]	1D;	1f#;	.
16AA	.	.	.
16GG	.	.	.
16FF#	.	.	.
16GG	.	.	.
8AA	.	.	.
2DD;	.	.	.
====	====	====	====
*-	*-	*-	*-
